svg/u1f9bd.svg

<svg viewBox="0 0 128 128" xmlns="http://www.w3.org/2000/svg">
  <defs>
    <radialGradient id="SVGID_1_" cx="87.1621" cy="87.0132" gradientUnits="userSpaceOnUse" r="1.9363">
      <stop offset="0" stop-color="#78909C"/>
      <stop offset="0.5619" stop-color="#617A86"/>
      <stop offset="1" stop-color="#546E7A"/>
    </radialGradient>
  </defs>
  <path d="M84.13,76.18 L90.2,76.18 L90.2,87.01 L84.13,87.01 L84.13,76.18 Z" fill="#C62828"/>
  <path d="M31.79,117.21 L5.38,108.63 C4.22,108.25 3.58,107 3.96,105.84 L4.67,103.66 C5.05,102.5 6.3,101.86 7.46,102.24 L33.87,110.82 C35.03,111.2 35.67,112.45 35.29,113.61 L34.58,115.79 C34.21,116.95 32.96,117.59 31.79,117.21 Z" fill="#424242"/>
  <path d="M40.27,104.19 C34.8,104.19 30.36,108.63 30.36,114.1 C30.36,119.57 34.8,124.01 40.27,124.01 C45.74,124.01 50.18,119.57 50.18,114.1 C50.18,108.62 45.74,104.19 40.27,104.19 Z" fill="#78909C"/>
  <path d="M107.11,25.7 C104.37,25.7 104.37,28.65 104.37,29.62 L103.99,73.91 L54.45,71.23 C40.26,71.23 33.74,76.66 28.62,92.73 L21.37,113.76 C21.11,114.53 21.16,115.35 21.51,116.08 C21.86,116.81 22.48,117.35 23.25,117.62 C23.57,117.73 23.9,117.79 24.24,117.79 C25.53,117.79 26.69,116.97 27.11,115.75 L32.49,100.15 C35.29,101.06 37.26,103.72 37.26,106.7 L37.26,114.11 C37.26,115.78 38.62,117.14 40.29,117.14 C41.96,117.14 43.32,115.78 43.32,114.11 L43.32,106.7 C43.32,101.11 39.71,96.17 34.46,94.42 C38.77,81 43.08,77.31 54.29,77.31 L104.1,80.21 C105.99,80.21 107.02,80 108.08,78.75 C109.28,77.32 109.29,75.01 109.29,74.99 L109.87,29.2 C109.85,26.15 108.13,25.7 107.11,25.7 Z" fill="#F44336"/>
  <path d="M40.23,117.37 L40.23,117.37 C38.73,117.37 37.5,116.37 37.25,114.87 L36.75,109.78 C36.63,108.98 37.31,108.26 38.19,108.26 L42.04,108.26 C42.9,108.26 43.57,108.94 43.49,109.73 L43.31,114.87 C43.32,116.25 41.73,117.37 40.23,117.37 Z" fill="#424242"/>
  <path d="M99.83,61.82 L48.18,60.3 C45.56,60.3 43.34,61.25 42.46,66.51 C42.46,66.51 42.29,67.18 42.6,69.72 C42.91,72.26 44.59,73.42 46.79,73.53 L105.68,76.38 L99.83,61.82 Z" fill="#424242"/>
  <path d="M93.54,29.77 C92.41,33.82 90.24,55.2 91.92,61.11 C93.6,67.02 105.75,76.3 105.75,76.3 L106.12,30.2 C106.12,26.46 104.08,25.87 100.73,25.87 L98.25,25.87 C94.75,25.91 94.17,27.49 93.54,29.77 Z" fill="#424242"/>
  <path d="M93.54,29.77 C93.01,31.67 92.8,33.7 92.56,35.65 C92.36,37.26 91.58,45.14 91.58,45.14 C91.98,45.09 92.38,45 92.77,44.91 C93.61,44.72 94.43,44.51 95.26,44.28 C95.49,44.22 95.7,44.15 95.93,44.15 C96.1,44.15 96.24,44.16 96.4,44.09 C96.82,43.9 97.14,43.51 97.34,43.11 C97.6,42.58 97.7,41.99 97.77,41.41 C98.03,39.31 98.03,37.19 98.29,35.09 C98.56,32.99 99.12,30.87 100.39,29.18 C100.83,28.59 101.37,28.02 101.51,27.29 C101.6,26.84 101.44,26.31 101.09,26 C100.93,25.86 100.7,25.73 100.48,25.75 C100.32,25.77 100.19,25.81 100.01,25.82 C99.42,25.83 98.82,25.87 98.23,25.87 C94.75,25.91 94.17,27.49 93.54,29.77 Z" fill="#757575"/>
  <path d="M72.48,74.65 C75.84,70.26 81.08,67.74 87.68,68.05 C95.32,68.4 100.03,73.07 102.45,76.24 L107.61,76.35 C107.71,70.45 108.01,55.27 108.01,55.27 C104.15,48.81 62.91,37.65 49.08,73.58 L72.48,74.65 Z" fill="#212121"/>
  <path d="M105.65,77.37 L108.4,76.52 C108.4,73.35 108,52.4 108,52.4 C103.96,45.63 59.52,33.25 47.23,76.23 L55.18,76.2 L67.87,76.94 C70.94,70.06 79.12,65.32 87.86,65.73 C100.89,66.34 105.65,77.37 105.65,77.37 Z" fill="#F44336"/>
  <path d="M87.16,88.95 C86.09,88.95 85.22,88.08 85.22,87.01 C85.22,85.94 86.09,85.07 87.16,85.07 C88.23,85.07 89.1,85.94 89.1,87.01 C89.1,88.08 88.23,88.95 87.16,88.95 Z" fill="url(#SVGID_1_)"/>
  <path d="M87.16,85.58 C87.95,85.58 88.6,86.22 88.6,87.02 C88.6,87.81 87.96,88.46 87.16,88.46 C86.37,88.46 85.72,87.82 85.72,87.02 C85.73,86.22 86.37,85.58 87.16,85.58 M87.16,84.58 C85.81,84.58 84.72,85.67 84.72,87.02 C84.72,88.37 85.81,89.46 87.16,89.46 C88.51,89.46 89.6,88.37 89.6,87.02 C89.6,85.67 88.51,84.58 87.16,84.58 L87.16,84.58 Z" fill="#82AEC0"/>
  <path d="M88.16,55.61 L88.16,118.42 Q88.16,119.42 87.16,119.42 Q86.16,119.42 86.16,118.42 L86.16,55.61 Q86.16,54.61 87.16,54.61 Q88.16,54.61 88.16,55.61 Z" fill="#82AEC0"/>
  <path d="M110.077,65.517 L65.667,109.927 Q64.96,110.634 64.253,109.927 Q63.546,109.22 64.253,108.513 L108.663,64.103 Q109.37,63.396 110.077,64.103 Q110.784,64.81 110.077,65.517 Z" fill="#82AEC0"/>
  <path d="M108.663,109.927 L64.253,65.517 Q63.546,64.81 64.253,64.103 Q64.96,63.396 65.667,64.103 L110.077,108.513 Q110.784,109.22 110.077,109.927 Q109.37,110.634 108.663,109.927 Z" fill="#82AEC0"/>
  <path d="M55.76,86.01 L118.57,86.01 Q119.57,86.01 119.57,87.01 Q119.57,88.01 118.57,88.01 L55.76,88.01 Q54.76,88.01 54.76,87.01 Q54.76,86.01 55.76,86.01 Z" fill="#82AEC0"/>
  <path d="M87.16,50.03 C66.73,50.03 50.17,66.59 50.17,87.02 C50.17,107.45 66.73,124 87.16,124 C107.59,124 124.15,107.44 124.15,87.01 C124.15,66.58 107.59,50.03 87.16,50.03 Z M87.16,116.95 C70.63,116.95 57.22,103.55 57.22,87.01 C57.22,70.48 70.62,57.07 87.16,57.07 C103.69,57.07 117.1,70.47 117.1,87.01 C117.1,103.55 103.7,116.95 87.16,116.95 Z" fill="#78909C"/>
  <path d="M87.16,62.13 C100.88,62.13 112.04,73.29 112.04,87.01 C112.04,100.73 100.88,111.89 87.16,111.89 C73.44,111.89 62.28,100.73 62.28,87.01 C62.28,73.29 73.44,62.13 87.16,62.13 M87.16,60.13 C72.31,60.13 60.28,72.17 60.28,87.01 C60.28,101.86 72.32,113.89 87.16,113.89 C102.01,113.89 114.04,101.85 114.04,87.01 C114.04,72.17 102.01,60.13 87.16,60.13 L87.16,60.13 Z" fill="#546E7A"/>
  <path d="M93.39,87.01 A6.23 6.23 0 1 1 80.93,87.01 A6.23 6.23 0 1 1 93.39,87.01 Z" fill="#757575"/>
  <path d="M56.826,70.342 Q60.313,63.376 66.73,58.517 Q73.148,53.657 80.802,52.188 Q81.293,52.094 81.585,52.292 Q81.878,52.49 81.972,52.982 Q82.161,53.964 81.178,54.152 Q73.983,55.533 67.937,60.111 Q61.892,64.688 58.614,71.238 Q58.167,72.132 57.272,71.684 Q56.825,71.46 56.714,71.125 Q56.602,70.79 56.826,70.342 Z" fill="#94D1E0" opacity="0.8"/>
  <path d="M43.53,65 C44.7,64.64 45.98,64.74 47.21,64.71 C48.04,64.69 48.9,64.59 49.67,64.26 C50.05,64.1 50.4,63.89 50.7,63.6 C50.84,63.46 50.9,63.33 51,63.17 C51.13,62.93 51.3,62.71 51.45,62.49 C51.85,61.87 52.24,61.25 52.61,60.61 C52.64,60.56 52.67,60.5 52.7,60.45 C52.7,60.45 48.89,60.03 46.78,60.29 C45.67,60.43 44.42,61.02 43.81,61.99 C43.62,62.29 43.42,62.57 43.27,62.9 C42.97,63.54 42.78,64.23 42.73,64.93 C42.73,65 42.72,65.07 42.76,65.12 C42.84,65.23 43.02,65.19 43.14,65.13 C43.27,65.08 43.4,65.04 43.53,65 Z" fill="#757575"/>
  <path d="M7.484,102.644 L21.804,107.264 Q22.041,107.341 22.122,107.498 Q22.203,107.656 22.126,107.894 Q21.972,108.369 21.496,108.216 L7.176,103.596 Q6.939,103.519 6.858,103.362 Q6.777,103.204 6.854,102.966 Q7.008,102.491 7.484,102.644 Z" fill="#757575"/>
  <path d="M105.95,50.48 C105.95,50.48 108.22,51.48 109.51,53.23 L109.62,47.91 C108.17,46.46 105.99,46.13 105.99,46.13 L105.95,50.48 Z" fill="#C62828"/>
  <path d="M48.08,73.53 L47.04,78.01 C47.04,78.01 45.1,78.19 43.65,77 C41.16,74.95 41.45,73.79 41.45,73.79 C42.14,73.26 44.08,72.61 44.08,72.61 C44.08,72.61 45.17,73.14 46.18,73.35 C47.19,73.56 48.08,73.53 48.08,73.53 Z" fill="#C62828"/>
</svg>

<svg viewBox="0 0 128 128" xmlns="http://www.w3.org/2000/svg">
  <g>
    <rect height="10.83" fill="#C62828" width="6.07" x="84.13" y="76.18"/>
    <path d="M31.79,117.21l-26.41-8.58c-1.16-0.38-1.8-1.63-1.42-2.79l0.71-2.18c0.38-1.16,1.63-1.8,2.79-1.42 l26.41,8.58c1.16,0.38,1.8,1.63,1.42,2.79l-0.71,2.18C34.21,116.95,32.96,117.59,31.79,117.21z" fill="#424242"/>
    <path d="M40.27,104.19c-5.47,0-9.91,4.44-9.91,9.91c0,5.47,4.44,9.91,9.91,9.91s9.91-4.44,9.91-9.91 C50.18,108.62,45.74,104.19,40.27,104.19z" fill="#78909C"/>
    <path d="M107.11,25.7c-2.74,0-2.74,2.95-2.74,3.92l-0.38,44.29l-49.54-2.68c-14.19,0-20.71,5.43-25.83,21.5 l-7.25,21.03c-0.26,0.77-0.21,1.59,0.14,2.32c0.35,0.73,0.97,1.27,1.74,1.54c0.32,0.11,0.65,0.17,0.99,0.17 c1.29,0,2.45-0.82,2.87-2.04l5.38-15.6c2.8,0.91,4.77,3.57,4.77,6.55v7.41c0,1.67,1.36,3.03,3.03,3.03c1.67,0,3.03-1.36,3.03-3.03 v-7.41c0-5.59-3.61-10.53-8.86-12.28c4.31-13.42,8.62-17.11,19.83-17.11l49.81,2.9c1.89,0,2.92-0.21,3.98-1.46 c1.2-1.43,1.21-3.74,1.21-3.76l0.58-45.79C109.85,26.15,108.13,25.7,107.11,25.7z" fill="#F44336"/>
    <path d="M40.23,117.37L40.23,117.37c-1.5,0-2.73-1-2.98-2.5l-0.5-5.09c-0.12-0.8,0.56-1.52,1.44-1.52h3.85 c0.86,0,1.53,0.68,1.45,1.47l-0.18,5.14C43.32,116.25,41.73,117.37,40.23,117.37z" fill="#424242"/>
    <path d="M99.83,61.82L48.18,60.3c-2.62,0-4.84,0.95-5.72,6.21c0,0-0.17,0.67,0.14,3.21 c0.31,2.54,1.99,3.7,4.19,3.81l58.89,2.85L99.83,61.82z" fill="#424242"/>
    <path d="M93.54,29.77c-1.13,4.05-3.3,25.43-1.62,31.34s13.83,15.19,13.83,15.19l0.37-46.1 c0-3.74-2.04-4.33-5.39-4.33h-2.48C94.75,25.91,94.17,27.49,93.54,29.77z" fill="#424242"/>
    <path d="M93.54,29.77c-0.53,1.9-0.74,3.93-0.98,5.88c-0.2,1.61-0.98,9.49-0.98,9.49 c0.4-0.05,0.8-0.14,1.19-0.23c0.84-0.19,1.66-0.4,2.49-0.63c0.23-0.06,0.44-0.13,0.67-0.13c0.17,0,0.31,0.01,0.47-0.06 c0.42-0.19,0.74-0.58,0.94-0.98c0.26-0.53,0.36-1.12,0.43-1.7c0.26-2.1,0.26-4.22,0.52-6.32c0.27-2.1,0.83-4.22,2.1-5.91 c0.44-0.59,0.98-1.16,1.12-1.89c0.09-0.45-0.07-0.98-0.42-1.29c-0.16-0.14-0.39-0.27-0.61-0.25c-0.16,0.02-0.29,0.06-0.47,0.07 c-0.59,0.01-1.19,0.05-1.78,0.05C94.75,25.91,94.17,27.49,93.54,29.77z" fill="#757575"/>
    <path d="M72.48,74.65c3.36-4.39,8.6-6.91,15.2-6.6c7.64,0.35,12.35,5.02,14.77,8.19l5.16,0.11 c0.1-5.9,0.4-21.08,0.4-21.08c-3.86-6.46-45.1-17.62-58.93,18.31L72.48,74.65z" fill="#212121"/>
    <path d="M105.65,77.37l2.75-0.85c0-3.17-0.4-24.12-0.4-24.12c-4.04-6.77-48.48-19.15-60.77,23.83l7.95-0.03 l12.69,0.74c3.07-6.88,11.25-11.62,19.99-11.21C100.89,66.34,105.65,77.37,105.65,77.37z" fill="#F44336"/>
    <g>
      <radialGradient id="SVGID_1_" cx="83.1621" cy="87.0132" gradientTransform="matrix(1 0 0 1 4 0)" gradientUnits="userSpaceOnUse" r="1.9363">
        <stop offset="0" stop-color="#78909C"/>
        <stop offset="0.5619" stop-color="#617A86"/>
        <stop offset="1" stop-color="#546E7A"/>
      </radialGradient>
      <path d="M87.16,88.95c-1.07,0-1.94-0.87-1.94-1.94s0.87-1.94,1.94-1.94s1.94,0.87,1.94,1.94 S88.23,88.95,87.16,88.95z" fill="url(#SVGID_1_)"/>
      <path d="M87.16,85.58c0.79,0,1.44,0.64,1.44,1.44c0,0.79-0.64,1.44-1.44,1.44c-0.79,0-1.44-0.64-1.44-1.44 C85.73,86.22,86.37,85.58,87.16,85.58 M87.16,84.58c-1.35,0-2.44,1.09-2.44,2.44s1.09,2.44,2.44,2.44s2.44-1.09,2.44-2.44 S88.51,84.58,87.16,84.58L87.16,84.58z" fill="#82AEC0"/>
    </g>
    <line fill="none" stroke="#82AEC0" stroke-width="2" stroke-linecap="round" stroke-miterlimit="10" x1="87.16" x2="87.16" y1="55.61" y2="118.42"/>
    <line fill="none" stroke="#82AEC0" stroke-width="2" stroke-linecap="round" stroke-miterlimit="10" x1="109.37" x2="64.96" y1="64.81" y2="109.22"/>
    <line fill="none" stroke="#82AEC0" stroke-width="2" stroke-linecap="round" stroke-miterlimit="10" x1="109.37" x2="64.96" y1="109.22" y2="64.81"/>
    <line fill="none" stroke="#82AEC0" stroke-width="2" stroke-linecap="round" stroke-miterlimit="10" x1="55.76" x2="118.57" y1="87.01" y2="87.01"/>
    <path d="M87.16,50.03c-20.43,0-36.99,16.56-36.99,36.99S66.73,124,87.16,124s36.99-16.56,36.99-36.99 S107.59,50.03,87.16,50.03z M87.16,116.95c-16.53,0-29.94-13.4-29.94-29.94c0-16.53,13.4-29.94,29.94-29.94 c16.53,0,29.94,13.4,29.94,29.94C117.1,103.55,103.7,116.95,87.16,116.95z" fill="#78909C"/>
    <path d="M87.16,62.13c13.72,0,24.88,11.16,24.88,24.88s-11.16,24.88-24.88,24.88s-24.88-11.16-24.88-24.88 S73.44,62.13,87.16,62.13 M87.16,60.13c-14.85,0-26.88,12.04-26.88,26.88c0,14.85,12.04,26.88,26.88,26.88 c14.85,0,26.88-12.04,26.88-26.88C114.04,72.17,102.01,60.13,87.16,60.13L87.16,60.13z" fill="#546E7A"/>
    <circle cx="87.16" cy="87.01" r="6.23" fill="#757575"/>
    <path d="M57.72,70.79 c4.51-9.01,13.37-15.72,23.27-17.62" opacity="0.8" fill="none" stroke="#94D1E0" stroke-width="2" stroke-linecap="round" stroke-miterlimit="10"/>
    <path d="M43.53,65c1.17-0.36,2.45-0.26,3.68-0.29c0.83-0.02,1.69-0.12,2.46-0.45 c0.38-0.16,0.73-0.37,1.03-0.66c0.14-0.14,0.2-0.27,0.3-0.43c0.13-0.24,0.3-0.46,0.45-0.68c0.4-0.62,0.79-1.24,1.16-1.88 c0.03-0.05,0.06-0.11,0.09-0.16c0,0-3.81-0.42-5.92-0.16c-1.11,0.14-2.36,0.73-2.97,1.7c-0.19,0.3-0.39,0.58-0.54,0.91 c-0.3,0.64-0.49,1.33-0.54,2.03c0,0.07-0.01,0.14,0.03,0.19c0.08,0.11,0.26,0.07,0.38,0.01C43.27,65.08,43.4,65.04,43.53,65z" fill="#757575"/>
    <line fill="none" stroke="#757575" stroke-linecap="round" stroke-miterlimit="10" x1="7.33" x2="21.65" y1="103.12" y2="107.74"/>
    <path d="M105.95,50.48c0,0,2.27,1,3.56,2.75l0.11-5.32c-1.45-1.45-3.63-1.78-3.63-1.78L105.95,50.48z" fill="#C62828"/>
    <path d="M48.08,73.53l-1.04,4.48c0,0-1.94,0.18-3.39-1.01c-2.49-2.05-2.2-3.21-2.2-3.21 c0.69-0.53,2.63-1.18,2.63-1.18s1.09,0.53,2.1,0.74S48.08,73.53,48.08,73.53z" fill="#C62828"/>
  </g>
</svg>
